SVG_Azure_All/Azure Edge Hardware Center.svg

<?xml version="1.0" encoding="UTF-8" standalone="no"?>
<!-- Generated by Microsoft Visio, SVG Export Azure Edge Hardware Center.svg Page-1 -->

<svg
   xmlns:dc="http://purl.org/dc/elements/1.1/"
   xmlns:cc="http://creativecommons.org/ns#"
   xmlns:rdf="http://www.w3.org/1999/02/22-rdf-syntax-ns#"
   xmlns:svg="http://www.w3.org/2000/svg"
   xmlns="http://www.w3.org/2000/svg"
   xmlns:sodipodi="http://sodipodi.sourceforge.net/DTD/sodipodi-0.dtd"
   xmlns:inkscape="http://www.inkscape.org/namespaces/inkscape"
   width="0.78739941in"
   height="0.78739941in"
   viewBox="0 0 56.692756 56.692898"
   xml:space="preserve"
   class="st8"
   version="1.1"
   id="svg55"
   sodipodi:docname="Azure Edge Hardware Center.svg"
   style="font-size:12px;overflow:visible;color-interpolation-filters:sRGB;fill:none;fill-rule:evenodd;stroke-linecap:square;stroke-miterlimit:3"
   inkscape:version="0.92.5 (2060ec1f9f, 2020-04-08)"><metadata
   id="metadata59"><rdf:RDF><cc:Work
       rdf:about=""><dc:format>image/svg+xml</dc:format><dc:type
         rdf:resource="http://purl.org/dc/dcmitype/StillImage" /></cc:Work></rdf:RDF></metadata><sodipodi:namedview
   pagecolor="#ffffff"
   bordercolor="#666666"
   borderopacity="1"
   objecttolerance="10"
   gridtolerance="10"
   guidetolerance="10"
   inkscape:pageopacity="0"
   inkscape:pageshadow="2"
   inkscape:window-width="640"
   inkscape:window-height="480"
   id="namedview57"
   showgrid="false"
   inkscape:zoom="1.8365233"
   inkscape:cx="37.795184"
   inkscape:cy="18.897555"
   inkscape:window-x="0"
   inkscape:window-y="0"
   inkscape:window-maximized="0"
   inkscape:current-layer="svg55" />
	<style
   type="text/css"
   id="style2">
	<![CDATA[
		.st1 {fill:none;stroke:none;stroke-linecap:butt;stroke-width:5.32174}
		.st2 {fill:#ccebf8;stroke:none;stroke-linecap:butt;stroke-width:5.32174}
		.st3 {fill:#b3e3f6;stroke:none;stroke-linecap:butt;stroke-width:5.32174}
		.st4 {fill:#75d0eb;stroke:none;stroke-linecap:butt;stroke-width:5.32174}
		.st5 {fill:#e9f7fe;stroke:none;stroke-linecap:butt;stroke-width:5.32174}
		.st6 {fill:url(#grad0-16);stroke:none;stroke-linecap:butt;stroke-width:5.32174}
		.st7 {fill:#f3f3f3;stroke:none;stroke-linecap:butt;stroke-width:5.32174}
		.st8 {fill:none;fill-rule:evenodd;font-size:12px;overflow:visible;stroke-linecap:square;stroke-miterlimit:3}
	]]>
	</style>

	<defs
   id="Patterns_And_Gradients">
		<linearGradient
   id="grad0-16"
   x1="0"
   y1="49.087323"
   x2="37.648331"
   y2="49.087323"
   gradientTransform="scale(0.89990709,1.1112258)"
   gradientUnits="userSpaceOnUse">
			<stop
   offset="0"
   stop-color="#8bb6e1"
   stop-opacity="1"
   id="stop4" />
			<stop
   offset="0.8"
   stop-color="#2e76bc"
   stop-opacity="1"
   id="stop6" />
		</linearGradient>
	</defs>
	<g
   id="g53"
   transform="translate(-5.6693772,-5.6693014)">
		<title
   id="title10">Page-1</title>
		<g
   id="group8193-1"
   transform="translate(5.66929,-34.0157)">
			<title
   id="title12">Azure Edge Hardware Center</title>
			<g
   id="group8194-2">
				<title
   id="title14">Sheet.8194</title>
				<g
   id="shape8195-3">
					<title
   id="title16">Sheet.8195</title>
					<rect
   x="0"
   y="39.685001"
   width="56.692902"
   height="56.692902"
   class="st1"
   id="rect18"
   style="fill:none;stroke:none;stroke-width:5.32174015;stroke-linecap:butt" />
				</g>
				<g
   id="shape8196-5"
   transform="translate(30.0768,-2.39589)">
					<title
   id="title21">Sheet.8196</title>
					<path
   d="m 0,75.91 11.82,-6.92 11.96,6.92 V 89.6 L 11.82,96.38 0,89.6 Z"
   class="st2"
   id="path23"
   inkscape:connector-curvature="0"
   style="fill:#ccebf8;stroke:none;stroke-width:5.32174015;stroke-linecap:butt" />
				</g>
				<g
   id="shape8197-7"
   transform="translate(30.0768,-2.39589)">
					<title
   id="title26">Sheet.8197</title>
					<path
   d="m 0,75.91 11.82,6.78 V 96.38 L 0,89.6 Z"
   class="st3"
   id="path28"
   inkscape:connector-curvature="0"
   style="fill:#b3e3f6;stroke:none;stroke-width:5.32174015;stroke-linecap:butt" />
				</g>
				<g
   id="shape8198-9"
   transform="translate(41.8936,-2.39589)">
					<title
   id="title31">Sheet.8198</title>
					<path
   d="M 11.96,75.91 0,82.69 V 96.38 L 11.96,89.6 Z"
   class="st4"
   id="path33"
   inkscape:connector-curvature="0"
   style="fill:#75d0eb;stroke:none;stroke-width:5.32174015;stroke-linecap:butt" />
				</g>
				<g
   id="shape8199-11"
   transform="translate(34.1094,-14.5035)">
					<title
   id="title36">Sheet.8199</title>
					<path
   d="m 0.29,90.32 11.53,-7.05 3.61,2.02 -11.54,7.06 v 4.03 H 3.46 L 1.88,94.5 H 1.59 L 0.15,94.8 H 0 Z"
   class="st5"
   id="path38"
   inkscape:connector-curvature="0"
   style="fill:#e9f7fe;stroke:none;stroke-width:5.32174015;stroke-linecap:butt" />
				</g>
				<g
   id="shape8200-13"
   transform="translate(2.82972,-10.6139)">
					<title
   id="title41">Sheet.8200</title>
					<path
   d="M 31.92,54.55 H 1.97 A 1.8684,1.8684 -180 0 0 0,56.32 v 38.29 a 1.8684,1.8684 -180 0 0 1.97,1.77 H 26.13 V 83.56 l 7.75,-4.62 V 56.32 a 1.8684,1.8684 -180 0 0 -1.96,-1.77 z"
   class="st6"
   id="path43"
   inkscape:connector-curvature="0"
   style="fill:url(#grad0-16);stroke:none;stroke-width:5.32174015;stroke-linecap:butt" />
				</g>
				<g
   id="shape8201-17"
   transform="translate(6.43834,-32.0833)">
					<title
   id="title46">Sheet.8201</title>
					<path
   d="m 8.21,85.28 a 1.44444,1.44444 0 0 1 1.45,-1.44 h 15.71 a 1.44444,1.44444 0 0 1 1.44,1.44 v 1.44 a 1.44444,1.44444 0 0 1 -1.44,1.44 H 9.66 A 1.44937,1.44937 0 0 1 8.21,86.72 Z M 5.62,94.94 A 1.44444,1.44444 0 0 1 4.18,96.38 H 1.45 A 1.44444,1.44444 0 0 1 0,94.94 v -1.45 a 1.44444,1.44444 0 0 1 1.45,-1.44 h 2.74 a 1.44444,1.44444 0 0 1 1.44,1.44 z m 0,-8.22 A 1.44444,1.44444 0 0 1 4.18,88.16 H 1.45 A 1.44444,1.44444 0 0 1 0.01,86.72 v -1.44 a 1.44444,1.44444 0 0 1 1.44,-1.44 h 2.74 a 1.44444,1.44444 0 0 1 1.44,1.44 z m 2.59,8.22 v -1.45 a 1.44444,1.44444 0 0 1 1.45,-1.44 h 15.71 a 1.44444,1.44444 0 0 1 1.44,1.44 v 1.45 a 1.44444,1.44444 0 0 1 -1.44,1.44 H 9.66 A 1.36063,1.36063 0 0 1 8.21,94.94 Z"
   class="st7"
   id="path48"
   inkscape:connector-curvature="0"
   style="fill:#f3f3f3;stroke:none;stroke-width:5.32174015;stroke-linecap:butt" />
				</g>
			</g>
		</g>
	</g>
</svg>

<?xml version="1.0" encoding="UTF-8" standalone="no"?>
<!DOCTYPE svg PUBLIC "-//W3C//DTD SVG 1.1//EN" "http://www.w3.org/Graphics/SVG/1.1/DTD/svg11.dtd">
<!-- Generated by Microsoft Visio, SVG Export Azure Edge Hardware Center.svg Page-1 -->
<svg xmlns="http://www.w3.org/2000/svg" xmlns:xlink="http://www.w3.org/1999/xlink" xmlns:ev="http://www.w3.org/2001/xml-events"
		width="0.944882in" height="1.33858in" viewBox="0 0 68.0315 96.378" xml:space="preserve" color-interpolation-filters="sRGB"
		class="st8">
	<style type="text/css">
	<![CDATA[
		.st1 {fill:none;stroke:none;stroke-linecap:butt;stroke-width:5.32174}
		.st2 {fill:#ccebf8;stroke:none;stroke-linecap:butt;stroke-width:5.32174}
		.st3 {fill:#b3e3f6;stroke:none;stroke-linecap:butt;stroke-width:5.32174}
		.st4 {fill:#75d0eb;stroke:none;stroke-linecap:butt;stroke-width:5.32174}
		.st5 {fill:#e9f7fe;stroke:none;stroke-linecap:butt;stroke-width:5.32174}
		.st6 {fill:url(#grad0-16);stroke:none;stroke-linecap:butt;stroke-width:5.32174}
		.st7 {fill:#f3f3f3;stroke:none;stroke-linecap:butt;stroke-width:5.32174}
		.st8 {fill:none;fill-rule:evenodd;font-size:12px;overflow:visible;stroke-linecap:square;stroke-miterlimit:3}
	]]>
	</style>

	<defs id="Patterns_And_Gradients">
		<linearGradient id="grad0-16" x1="0" y1="0" x2="1" y2="0" gradientTransform="rotate(90 0.5 0.5)">
			<stop offset="0" stop-color="#8bb6e1" stop-opacity="1"/>
			<stop offset="0.8" stop-color="#2e76bc" stop-opacity="1"/>
		</linearGradient>
	</defs>
	<g>
		<title>Page-1</title>
		<g id="group7998-1" transform="translate(5.66929,-34.0157)">
			<title>Azure Edge Hardware Center</title>
			<g id="group7999-2">
				<title>Sheet.7999</title>
				<g id="shape8000-3">
					<title>Sheet.8000</title>
					<rect x="0" y="39.685" width="56.6929" height="56.6929" class="st1"/>
				</g>
				<g id="shape8001-5" transform="translate(30.0768,-2.39589)">
					<title>Sheet.8001</title>
					<path d="M0 75.91 L11.82 68.99 L23.78 75.91 L23.78 89.6 L11.82 96.38 L0 89.6 L0 75.91 Z" class="st2"/>
				</g>
				<g id="shape8002-7" transform="translate(30.0768,-2.39589)">
					<title>Sheet.8002</title>
					<path d="M0 75.91 L11.82 82.69 L11.82 96.38 L0 89.6 L0 75.91 Z" class="st3"/>
				</g>
				<g id="shape8003-9" transform="translate(41.8936,-2.39589)">
					<title>Sheet.8003</title>
					<path d="M11.96 75.91 L0 82.69 L0 96.38 L11.96 89.6 L11.96 75.91 Z" class="st4"/>
				</g>
				<g id="shape8004-11" transform="translate(34.1094,-14.5035)">
					<title>Sheet.8004</title>
					<path d="M0.29 90.32 L11.82 83.27 L15.43 85.29 L3.89 92.35 L3.89 96.38 L3.46 96.38 L1.88 94.5 L1.59 94.5 L0.15
								 94.8 L0 94.8 L0.29 90.32 Z" class="st5"/>
				</g>
				<g id="shape8005-13" transform="translate(2.82972,-10.6139)">
					<title>Sheet.8005</title>
					<path d="M31.92 54.55 L1.97 54.55 A1.8684 1.8684 -180 0 0 0 56.32 L0 94.61 A1.8684 1.8684 -180 0 0 1.97 96.38
								 L26.13 96.38 L26.13 83.56 L33.88 78.94 L33.88 56.32 A1.8684 1.8684 -180 0 0 31.92 54.55 Z"
							class="st6"/>
				</g>
				<g id="shape8006-17" transform="translate(6.43834,-32.0833)">
					<title>Sheet.8006</title>
					<path d="M8.21 85.28 A1.44444 1.44444 0 0 1 9.66 83.84 L25.37 83.84 A1.44444 1.44444 0 0 1 26.81 85.28 L26.81
								 86.72 A1.44444 1.44444 0 0 1 25.37 88.16 L9.66 88.16 A1.44937 1.44937 0 0 1 8.21 86.72 L8.21 85.28
								 ZM5.62 94.94 A1.44444 1.44444 0 0 1 4.18 96.38 L1.45 96.38 A1.44444 1.44444 0 0 1 0 94.94 L0 93.49
								 A1.44444 1.44444 0 0 1 1.45 92.05 L4.19 92.05 A1.44444 1.44444 0 0 1 5.63 93.49 L5.62 94.94 ZM5.62
								 86.72 A1.44444 1.44444 0 0 1 4.18 88.16 L1.45 88.16 A1.44444 1.44444 0 0 1 0.01 86.72 L0.01 85.28
								 A1.44444 1.44444 0 0 1 1.45 83.84 L4.19 83.84 A1.44444 1.44444 0 0 1 5.63 85.28 L5.62 86.72 ZM8.21
								 94.94 L8.21 93.49 A1.44444 1.44444 0 0 1 9.66 92.05 L25.37 92.05 A1.44444 1.44444 0 0 1 26.81 93.49
								 L26.81 94.94 A1.44444 1.44444 0 0 1 25.37 96.38 L9.66 96.38 A1.36063 1.36063 0 0 1 8.21 94.94 Z"
							class="st7"/>
				</g>
			</g>
		</g>
	</g>
</svg>
